_includes/icons/ios-google-play.svg

<svg fill="#666" height="50" viewBox="0 0 50 50" width="50" xmlns="http://www.w3.org/2000/svg"><path d="m6.78125 2c-.011719.003906-.019531.027344-.03125.03125-.027344.003906-.066406-.007812-.09375 0-.210937.023438-.40625.109375-.5625.25-.671875.367188-1.09375 1.121094-1.09375 1.9375v41.78125c0 .621094.273438 1.273438.78125 1.65625.234375.261719.589844.378906.9375.3125.457031.023438.9375-.078125 1.34375-.3125.847656-.492187 18.15625-10.5 18.15625-10.5l9.03125-5.21875c.019531-.007812.042969-.019531.0625-.03125l.125-.0625s.121094-.0625.125-.0625l.03125-.03125c.269531-.15625 7.667969-4.414062 8.6875-5 .703125-.40625 1.261719-1.066406 1.25-1.875s-.582031-1.4375-1.21875-1.78125c-.351562-.1875-2.632812-1.492187-4.75-2.71875-2.117187-1.226562-4.125-2.40625-4.125-2.40625l-9.21875-5.3125s-16.761719-9.679687-17.75-10.25c-.347656-.199219-.742187-.359375-1.125-.40625-.191406-.023437-.375-.03125-.5625 0zm.21875 2.6875 20.375 20.21875-20.375 20.21875zm4.75 1.90625c5.085938 2.9375 13.46875 7.78125 13.46875 7.78125l8.0625 4.65625-4.5 4.46875zm23.3125 13.46875c.480469.28125 1.703125.992188 3.5 2.03125 2.117188 1.226563 4.289063 2.46875 4.8125 2.75.050781.027344.035156.042969.0625.0625-.039062.027344-.050781.035156-.15625.09375-.960937.554688-7.191406 4.171875-8.1875 4.75l-4.90625-4.84375zm-6.28125 6.21875 4.53125 4.5-8.09375 4.65625s-8.164062 4.710938-13.4375 7.75z"/></svg>

<svg xmlns="http://www.w3.org/2000/svg" viewBox="0 0 50 50" width="50" height="50" fill="#666"><path d="M 6.78125 2 C 6.769531 2.003906 6.761719 2.027344 6.75 2.03125 C 6.722656 2.035156 6.683594 2.023438 6.65625 2.03125 C 6.445313 2.054688 6.25 2.140625 6.09375 2.28125 C 5.421875 2.648438 5 3.402344 5 4.21875 L 5 46 C 5 46.621094 5.273438 47.273438 5.78125 47.65625 C 6.015625 47.917969 6.371094 48.035156 6.71875 47.96875 C 7.175781 47.992188 7.65625 47.890625 8.0625 47.65625 C 8.910156 47.164063 26.21875 37.15625 26.21875 37.15625 L 35.25 31.9375 C 35.269531 31.929688 35.292969 31.917969 35.3125 31.90625 L 35.4375 31.84375 C 35.4375 31.84375 35.558594 31.78125 35.5625 31.78125 C 35.574219 31.769531 35.582031 31.761719 35.59375 31.75 C 35.863281 31.59375 43.261719 27.335938 44.28125 26.75 C 44.984375 26.34375 45.542969 25.683594 45.53125 24.875 C 45.519531 24.066406 44.949219 23.4375 44.3125 23.09375 C 43.960938 22.90625 41.679688 21.601563 39.5625 20.375 C 37.445313 19.148438 35.4375 17.96875 35.4375 17.96875 L 26.21875 12.65625 C 26.21875 12.65625 9.457031 2.976563 8.46875 2.40625 C 8.121094 2.207031 7.726563 2.046875 7.34375 2 C 7.152344 1.976563 6.96875 1.96875 6.78125 2 Z M 7 4.6875 L 27.375 24.90625 L 7 45.125 Z M 11.75 6.59375 C 16.835938 9.53125 25.21875 14.375 25.21875 14.375 L 33.28125 19.03125 L 28.78125 23.5 Z M 35.0625 20.0625 C 35.542969 20.34375 36.765625 21.054688 38.5625 22.09375 C 40.679688 23.320313 42.851563 24.5625 43.375 24.84375 C 43.425781 24.871094 43.410156 24.886719 43.4375 24.90625 C 43.398438 24.933594 43.386719 24.941406 43.28125 25 C 42.320313 25.554688 36.089844 29.171875 35.09375 29.75 L 30.1875 24.90625 Z M 28.78125 26.28125 L 33.3125 30.78125 L 25.21875 35.4375 C 25.21875 35.4375 17.054688 40.148438 11.78125 43.1875 Z"/></svg>
